packages/web/public/svg/roadmap-secondary-bg.svg

<svg fill="none" height="447" viewBox="0 0 574 447" width="574" xmlns="http://www.w3.org/2000/svg"><g clip-rule="evenodd" fill-rule="evenodd"><path d="m0 100.609c0-31.2302 24.3362-57.0505 55.5113-58.8971l455.9997-27.0105c33.897-2.0078 62.489 24.9403 62.489 58.8968v308.9268c0 34.646-29.712 61.835-64.222 58.769l-455.9996-40.516c-30.4413-2.704-53.7784-28.207-53.7784-58.768z" fill="#eee"/><path d="m0 89.6087c0-31.2299 24.3362-57.0502 55.5113-58.8968l455.9997-27.01048c33.897-2.00784 62.489 24.94028 62.489 58.89678v308.9268c0 34.646-29.712 61.835-64.222 58.769l-455.9996-40.516c-30.4413-2.704-53.7784-28.207-53.7784-58.768z" fill="#fff"/></g></svg>

<svg width="574" height="447" viewBox="0 0 574 447" fill="none" xmlns="http://www.w3.org/2000/svg">
<path fill-rule="evenodd" clip-rule="evenodd" d="M0 100.609C0 69.3788 24.3362 43.5585 55.5113 41.7119L511.511 14.7014C545.408 12.6936 574 39.6417 574 73.5982V382.525C574 417.171 544.288 444.36 509.778 441.294L53.7784 400.778C23.3371 398.074 0 372.571 0 342.01V100.609Z" fill="#EEEEEE"/>
<path fill-rule="evenodd" clip-rule="evenodd" d="M0 89.6087C0 58.3788 24.3362 32.5585 55.5113 30.7119L511.511 3.70142C545.408 1.69358 574 28.6417 574 62.5982V371.525C574 406.171 544.288 433.36 509.778 430.294L53.7784 389.778C23.3371 387.074 0 361.571 0 331.01V89.6087Z" fill="white"/>
</svg>
